src/img/icons/ico_28.svg

<svg width="60" height="60" viewBox="0 0 60 60" fill="none" xmlns="http://www.w3.org/2000/svg">
<g clip-path="url(#clip0_2109_3919)">
<path d="M31.0331 44.6954L42.8456 52.1954C44.369 53.1563 46.244 51.7266 45.7987 49.9688L42.3768 36.5157C42.2843 36.1428 42.299 35.7513 42.4193 35.3864C42.5395 35.0215 42.7604 34.698 43.0565 34.4532L53.6503 25.6172C55.0331 24.4688 54.3299 22.1485 52.5253 22.0313L38.6971 21.1407C38.3198 21.1187 37.9571 20.9873 37.6532 20.7626C37.3494 20.5378 37.1176 20.2294 36.9862 19.8751L31.8299 6.89068C31.6935 6.51546 31.4448 6.19132 31.1178 5.96227C30.7907 5.73322 30.4011 5.61035 30.0018 5.61035C29.6025 5.61035 29.2129 5.73322 28.8859 5.96227C28.5588 6.19132 28.3102 6.51546 28.1737 6.89068L23.0174 19.8751C22.886 20.2294 22.6542 20.5378 22.3504 20.7626C22.0465 20.9873 21.6838 21.1187 21.3065 21.1407L7.47838 22.0313C5.6737 22.1485 4.97057 24.4688 6.35338 25.6172L16.9471 34.4532C17.2432 34.698 17.4641 35.0215 17.5844 35.3864C17.7046 35.7513 17.7193 36.1428 17.6268 36.5157L14.4628 48.9844C13.9237 51.0938 16.1737 52.8047 17.9784 51.6563L28.9706 44.6954C29.2788 44.4994 29.6365 44.3953 30.0018 44.3953C30.3671 44.3953 30.7248 44.4994 31.0331 44.6954Z" stroke="#ED6E77" stroke-width="2" stroke-linecap="round" stroke-linejoin="round"/>
</g>
<defs>
<clipPath id="clip0_2109_3919">
<rect width="60" height="60" fill="white"/>
</clipPath>
</defs>
</svg>

<svg xmlns="http://www.w3.org/2000/svg" width="60" height="60" fill="none">
  <g clip-path="url(#a)">
    <path stroke="#ED6E77" stroke-linecap="round" stroke-linejoin="round" stroke-width="2" d="m31.033 44.695 11.813 7.5c1.523.961 3.398-.468 2.953-2.226l-3.422-13.453a2.039 2.039 0 0 1 .68-2.063l10.593-8.836c1.383-1.148.68-3.469-1.125-3.586l-13.828-.89a1.946 1.946 0 0 1-1.71-1.266L31.83 6.891a1.945 1.945 0 0 0-3.656 0l-5.157 12.984a1.946 1.946 0 0 1-1.71 1.266l-13.829.89c-1.804.117-2.507 2.438-1.125 3.586l10.594 8.836a2.04 2.04 0 0 1 .68 2.063l-3.164 12.468c-.54 2.11 1.71 3.82 3.515 2.672l10.993-6.96a1.922 1.922 0 0 1 2.062 0Z"/>
  </g>
  <defs>
    <clipPath id="a">
      <path fill="#fff" d="M0 0h60v60H0z"/>
    </clipPath>
  </defs>
</svg>
